tools/download-figma-icons/icons/outlined-large/surface.svg

<svg width="64" height="64" viewBox="0 0 64 64" fill="none" xmlns="http://www.w3.org/2000/svg">
<path fill-rule="evenodd" clip-rule="evenodd" d="M12.0003 6.99994C12.8283 6.99994 13.5003 6.32795 13.5003 5.49995V1.49999C13.5003 0.671994 12.8283 0 12.0003 0C11.1723 0 10.5003 0.671994 10.5003 1.49999V5.49995C10.5003 6.32795 11.1723 6.99994 12.0003 6.99994ZM39.5597 50.5005L45.0306 45.0295C45.6166 44.4435 45.6166 43.4945 45.0306 42.9085C44.4446 42.3225 43.4957 42.3225 42.9097 42.9085L35.3177 50.5005H13.4999V44.4385L33.2117 24.7267C33.7977 24.1407 33.7977 23.1907 33.2117 22.6047C32.6257 22.0197 31.6768 22.0197 31.0908 22.6047L13.4999 40.1956V13.5008H24.1338L18.8179 18.8167C18.2319 19.4027 18.2319 20.3527 18.8179 20.9387C19.1109 21.2307 19.4949 21.3777 19.8779 21.3777C20.2619 21.3777 20.6458 21.2307 20.9388 20.9387L28.3758 13.5008H50.4996V19.2577L39.1247 30.6316C38.5387 31.2176 38.5387 32.1666 39.1247 32.7526C39.4177 33.0456 39.8017 33.1916 40.1857 33.1916C40.5697 33.1916 40.9537 33.0456 41.2467 32.7526L50.4996 23.4997V50.5005H39.5597ZM51.9996 10.5008H11.9999C11.1719 10.5008 10.4999 11.1728 10.4999 12.0008V52.0005C10.4999 52.8284 11.1719 53.5004 11.9999 53.5004H51.9996C52.8286 53.5004 53.4996 52.8284 53.4996 52.0005V12.0008C53.4996 11.1728 52.8286 10.5008 51.9996 10.5008ZM50.5001 1.49999C50.5001 0.671994 51.1721 0 52.0001 0C52.8281 0 53.5001 0.671994 53.5001 1.49999V5.49995C53.5001 6.32795 52.8281 6.99994 52.0001 6.99994C51.1721 6.99994 50.5001 6.32795 50.5001 5.49995V1.49999ZM12.0003 56.9995C11.1723 56.9995 10.5003 57.6715 10.5003 58.4995V62.4995C10.5003 63.3275 11.1723 63.9995 12.0003 63.9995C12.8283 63.9995 13.5003 63.3275 13.5003 62.4995V58.4995C13.5003 57.6715 12.8283 56.9995 12.0003 56.9995ZM50.5001 58.4995C50.5001 57.6715 51.1721 56.9995 52.0001 56.9995C52.8281 56.9995 53.5001 57.6715 53.5001 58.4995V62.4995C53.5001 63.3275 52.8281 63.9995 52.0001 63.9995C51.1721 63.9995 50.5001 63.3275 50.5001 62.4995V58.4995ZM58.5 13.4999H62.5C63.328 13.4999 64 12.8279 64 11.9999C64 11.1719 63.328 10.4999 62.5 10.4999H58.5C57.672 10.4999 57 11.1719 57 11.9999C57 12.8279 57.672 13.4999 58.5 13.4999ZM58.5 50.4996H62.5C63.328 50.4996 64 51.1716 64 51.9996C64 52.8275 63.328 53.4995 62.5 53.4995H58.5C57.672 53.4995 57 52.8275 57 51.9996C57 51.1716 57.672 50.4996 58.5 50.4996ZM5.50038 10.4999H1.50041C0.672421 10.4999 0.000427242 11.1719 0.000427242 11.9999C0.000427242 12.8279 0.672421 13.4999 1.50041 13.4999H5.50038C6.32837 13.4999 7.00037 12.8279 7.00037 11.9999C7.00037 11.1719 6.32837 10.4999 5.50038 10.4999ZM1.50041 50.4996H5.50038C6.32837 50.4996 7.00037 51.1716 7.00037 51.9996C7.00037 52.8275 6.32837 53.4995 5.50038 53.4995H1.50041C0.672421 53.4995 0.000427242 52.8275 0.000427242 51.9996C0.000427242 51.1716 0.672421 50.4996 1.50041 50.4996Z" fill="black"/>
</svg>

<svg xmlns="http://www.w3.org/2000/svg" width="64" height="64" fill="none" viewBox="0 0 64 64"><path fill="currentColor" fill-rule="evenodd" d="M12 7a1.5 1.5 0 0 0 1.5-1.5v-4a1.5 1.5 0 0 0-3 0v4A1.5 1.5 0 0 0 12 7m27.56 43.5 5.47-5.47a1.5 1.5 0 1 0-2.12-2.122l-7.592 7.593H13.5v-6.062l19.712-19.712a1.5 1.5 0 0 0-2.121-2.122L13.5 40.195V13.502h10.634l-5.316 5.316a1.5 1.5 0 0 0 2.12 2.122l7.438-7.438H50.5v5.757L39.125 30.632a1.5 1.5 0 1 0 2.122 2.12L50.5 23.5v27zM52 10.5H12a1.5 1.5 0 0 0-1.5 1.5v40a1.5 1.5 0 0 0 1.5 1.5h40a1.5 1.5 0 0 0 1.5-1.5V12a1.5 1.5 0 0 0-1.5-1.5m-1.5-9a1.5 1.5 0 0 1 3 0v4a1.5 1.5 0 0 1-3 0zM12 57a1.5 1.5 0 0 0-1.5 1.5v4a1.5 1.5 0 0 0 3 0v-4A1.5 1.5 0 0 0 12 57m38.5 1.5a1.5 1.5 0 0 1 3 0v4a1.5 1.5 0 0 1-3 0zm8-45h4a1.5 1.5 0 0 0 0-3h-4a1.5 1.5 0 0 0 0 3m0 37h4a1.5 1.5 0 0 1 0 3h-4a1.5 1.5 0 0 1 0-3m-53-40h-4a1.5 1.5 0 0 0 0 3h4a1.5 1.5 0 0 0 0-3m-4 40h4a1.5 1.5 0 0 1 0 3h-4a1.5 1.5 0 0 1 0-3" clip-rule="evenodd"/></svg>
